app/dist/common/images/huron-consulting.svg

<svg height="18" viewBox="0 0 18 18" width="18" xmlns="http://www.w3.org/2000/svg"><path d="m0 0h18v18h-18z" fill="#f0f3fa"/><path d="m6.56 14h4.88a2.56 2.56 0 0 0 2.56-2.56v-4.88a2.56 2.56 0 0 0 -2.56-2.56h-4.88a2.56 2.56 0 0 0 -2.56 2.56v4.88a2.56 2.56 0 0 0 2.56 2.56zm5.5-7.67a1.3 1.3 0 0 0 -.9-.33h-1.6c-.34 0-.57.1-.81.33-.25.22-.37.53-.38.86v1.5h1.26v-1.69h1.37v4h-.75v1.44h.9c.34 0 .67-.13.91-.36s.38-.54.38-.86v-4.02c0-.33-.14-.64-.38-.86zm-4.31.67v-1.44h-.9c-.34 0-.67.13-.91.36s-.38.54-.38.86v4.01c0 .33.14.64.38.86.24.23.57.35.9.35h1.4c.35 0 .67-.12.91-.35.25-.22.47-.53.47-.86v-1.48h-1.24v1.69h-1.38v-4z" fill="#00558c" fill-rule="evenodd"/></svg>

<!-- by TradingView --><svg width="18" height="18" viewBox="0 0 18 18" xmlns="http://www.w3.org/2000/svg"><path fill="#F0F3FA" d="M0 0h18v18H0z"/><path fill-rule="evenodd" d="M6.56 14h4.88A2.56 2.56 0 0 0 14 11.44V6.56A2.56 2.56 0 0 0 11.44 4H6.56A2.56 2.56 0 0 0 4 6.56v4.88A2.56 2.56 0 0 0 6.56 14Zm5.5-7.67a1.3 1.3 0 0 0-.9-.33h-1.6c-.34 0-.57.1-.81.33-.25.22-.37.53-.38.86v1.5h1.26V7H11v4h-.75v1.44h.9c.34 0 .67-.13.91-.36.24-.23.38-.54.38-.86V7.2c0-.33-.14-.64-.38-.86ZM7.75 7V5.56h-.9c-.34 0-.67.13-.91.36-.24.23-.38.54-.38.86v4.01c0 .33.14.64.38.86.24.23.57.35.9.35h1.4c.35 0 .67-.12.91-.35.25-.22.47-.53.47-.86V9.31H8.38V11H7V7h.75Z" fill="#00558C"/></svg>
